src/icons/svg/ExpandCollapse.svg

<!-- Generated by IcoMoon.io -->
<svg version="1.1" xmlns="http://www.w3.org/2000/svg" width="24" height="24" viewBox="0 0 24 24">
<title>expand-collapse</title>
<path fill="#444" d="M21.273 2.182c0-0.301-0.244-0.545-0.545-0.545s-0.545 0.244-0.545 0.545v19.636c0 0.301 0.244 0.545 0.545 0.545s0.545-0.244 0.545-0.545v-19.636z"></path>
<path fill="#444" d="M14.938 12.431c0.238 0.185 0.58 0.142 0.765-0.096s0.142-0.58-0.096-0.765l-4.909-3.818c-0.238-0.185-0.58-0.142-0.765 0.096s-0.142 0.58 0.096 0.765l4.909 3.818z"></path>
<path fill="#444" d="M15.608 12.431c0.238-0.185 0.281-0.528 0.096-0.765s-0.528-0.281-0.765-0.096l-4.909 3.818c-0.238 0.185-0.281 0.528-0.096 0.765s0.528 0.281 0.765 0.096l4.909-3.818z"></path>
<path fill="#444" d="M15.273 12.545c0.301 0 0.545-0.244 0.545-0.545s-0.244-0.545-0.545-0.545h-12.545c-0.301 0-0.545 0.244-0.545 0.545s0.244 0.545 0.545 0.545h12.545z"></path>
</svg>

<svg width="24" height="24" viewBox="0 0 24 24" fill="none" xmlns="http://www.w3.org/2000/svg">
<path d="M21.273 2.182C21.273 1.881 21.029 1.637 20.728 1.637C20.427 1.637 20.183 1.881 20.183 2.182V21.818C20.183 22.119 20.427 22.363 20.728 22.363C21.029 22.363 21.273 22.119 21.273 21.818V2.182V2.182Z" fill="#1C2125"/>
<path d="M14.938 12.431C15.176 12.616 15.518 12.573 15.703 12.335C15.888 12.097 15.845 11.755 15.607 11.57L10.698 7.752C10.46 7.567 10.118 7.61 9.933 7.848C9.748 8.086 9.791 8.428 10.029 8.613L14.938 12.431V12.431Z" fill="#1C2125"/>
<path d="M15.608 12.431C15.846 12.246 15.889 11.903 15.704 11.666C15.519 11.429 15.176 11.385 14.939 11.57L10.03 15.388C9.79198 15.573 9.74898 15.916 9.93398 16.153C10.119 16.39 10.462 16.434 10.699 16.249L15.608 12.431Z" fill="#1C2125"/>
<path d="M15.273 12.545C15.574 12.545 15.818 12.301 15.818 12C15.818 11.699 15.574 11.455 15.273 11.455H2.72798C2.42698 11.455 2.18298 11.699 2.18298 12C2.18298 12.301 2.42698 12.545 2.72798 12.545H15.273Z" fill="#1C2125"/>
</svg>
